packages/icons/24x24/chevron_right.svg

<?xml version="1.0" encoding="UTF-8"?>
<svg class="customer-ui__icon" fill="#000000" width="24px" height="24px" viewBox="0 0 24 24" version="1.1"
    xmlns="http://www.w3.org/2000/svg" xmlns:xlink="http://www.w3.org/1999/xlink">
    <title> Chevron / Right</title>
    <defs>
        <path
            d="M16.7071068,12.7071068 C17.0675907,12.3466228 17.0953203,11.7793918 16.7902954,11.3871006 L16.7071068,11.2928932 L10.7071068,5.29289322 C10.3165825,4.90236893 9.68341751,4.90236893 9.29289322,5.29289322 C8.93240926,5.65337718 8.90467972,6.22060824 9.20970461,6.61289944 L9.29289322,6.70710678 L14.585,12 L9.29289322,17.2928932 C8.93240926,17.6533772 8.90467972,18.2206082 9.20970461,18.6128994 L9.29289322,18.7071068 C9.65337718,19.0675907 10.2206082,19.0953203 10.6128994,18.7902954 L10.7071068,18.7071068 L16.7071068,12.7071068 Z"
            id="path-1"></path>
    </defs>
    <g id="Icons-/-24x24-/-Chevron-/-Right" stroke="none" stroke-width="1" fill-rule="evenodd">
        <rect id="base" fill-opacity="0" fill="#FFFFFF" x="0" y="0" width="24" height="24"></rect>
        <mask id="mask-2" fill="white">
            <use xlink:href="#path-1"></use>
        </mask>
        <use fill="inherit" fill-rule="nonzero" xlink:href="#path-1"></use>
        <rect fill="inherit" mask="url(#mask-2)" x="4.4408921e-14" y="-3.55271368e-15" width="24" height="24"></rect>
    </g>
</svg>

<svg class="prefix__customer-ui__icon" width="24" height="24" xmlns="http://www.w3.org/2000/svg" xmlns:xlink="http://www.w3.org/1999/xlink"><defs><path d="M16.707 12.707a1 1 0 00.083-1.32l-.083-.094-6-6a1 1 0 00-1.497 1.32l.083.094L14.585 12l-5.292 5.293a1 1 0 00-.083 1.32l.083.094a1 1 0 001.32.083l.094-.083 6-6z" id="prefix__a"/></defs><g fill-rule="evenodd"><path fill="none" d="M0 0h24v24H0z"/><mask id="prefix__b" fill="#fff"><use xlink:href="#prefix__a"/></mask><use fill="inherit" fill-rule="nonzero" xlink:href="#prefix__a"/><path fill="inherit" mask="url(#prefix__b)" d="M0 0h24v24H0z"/></g></svg>
